X:1
T:Title
L:1/8
M:2/4
K:Db
V:1 treble nm="Grand Piano"
V:1
 z2 F2 | F3 E | D3 C | B,4- | B,2 F2 | F3 E | D2 F2 | E4- | E2 G2 | G3 F | F3 E | E3 D/C/ | D3 D- | %13
 D D2 D- | D D2 D | C4- | C2 D2 | D3 C | C3 B, | B,4- | B,2 F2 | F3 E | E D2 F | E4- | E2 G2 | %25
 G3 F | F3 E- | E E2 D/C/ | D3 D | D2 E2 | C4- | C2 D2 | D4 | C3 B, | B,4- | B,2 F2 | F3 E | D3 F | %38
 E4- | E2 G2 | G3 F | F3 E | E3 D/C/ | D3 D | D2 E2 | C4- | C2 A2 | AG GF | F4- | F2 A2 | A3 G | %51
 GF F2- | F A2 G | GF F2- | F B2 A | A4 | G G2 F | E2 G2 | G3 F | F2 E2- | E E2 E | FE D2- | %62
 D D2 E | F3 G- | G E2 G | F2 d2 | d3 c | c3 B | B4- | B2 d2 | d3 e | c3 c | c4- | c2 c2 | c3 B | %75
 =A2 F2- | F c2 B | =AG F2- | F c2 B | d3 c | B4- | B2 d2 | d3 c | c3 B | B4- | B2 d2 | d3 e | %87
 c3 c | c4- | c2 c2 | c3 B | =A2 F2- | F c2 B | =AG F2- | F c2 B | d3 c | B4- | B4 | d3 c | B4 | %100
 d d2 c | c B3 | d3 c | B4 | d d2 c | B2 cd | e3 d | c4 | e e2 d | c2 cB | =A3 A | =A F2 F | %112
 d2 cB | B2 cB | d3 c | B4 | d d2 c | c B3 | d3 c | B4 | d d2 c | B2 cd | e3 d | c4 | e e2 d | %125
 c2 cB | =A3 d | B4- | B2 z2 |] %129

